places/16/mail-inbox.svg

<?xml version="1.0" encoding="UTF-8" standalone="no"?>
<svg
   xmlns:dc="http://purl.org/dc/elements/1.1/"
   xmlns:cc="http://creativecommons.org/ns#"
   xmlns:rdf="http://www.w3.org/1999/02/22-rdf-syntax-ns#"
   xmlns:svg="http://www.w3.org/2000/svg"
   xmlns="http://www.w3.org/2000/svg"
   xmlns:xlink="http://www.w3.org/1999/xlink"
   xmlns:sodipodi="http://sodipodi.sourceforge.net/DTD/sodipodi-0.dtd"
   xmlns:inkscape="http://www.inkscape.org/namespaces/inkscape"
   version="1.1"
   width="16"
   height="16"
   id="svg4230"
   inkscape:version="0.91 r13725"
   sodipodi:docname="mail-inbox.svg">
  <sodipodi:namedview
     pagecolor="#ffffff"
     bordercolor="#666666"
     borderopacity="1"
     objecttolerance="10"
     gridtolerance="10"
     guidetolerance="10"
     inkscape:pageopacity="0"
     inkscape:pageshadow="2"
     inkscape:window-width="1440"
     inkscape:window-height="844"
     id="namedview91"
     showgrid="false"
     inkscape:zoom="40.125"
     inkscape:cx="8"
     inkscape:cy="8"
     inkscape:window-x="0"
     inkscape:window-y="30"
     inkscape:window-maximized="1"
     inkscape:current-layer="svg4230" />
  <defs
     id="defs4232">
    <linearGradient
       id="linearGradient4090">
      <stop
         id="stop4092"
         style="stop-color:#ffffff;stop-opacity:1"
         offset="0" />
      <stop
         id="stop4094"
         style="stop-color:#ffffff;stop-opacity:0.23529412"
         offset="0.02782776" />
      <stop
         id="stop4096"
         style="stop-color:#ffffff;stop-opacity:0.15686275"
         offset="0.98430091" />
      <stop
         id="stop4098"
         style="stop-color:#ffffff;stop-opacity:0.39215687"
         offset="1" />
    </linearGradient>
    <linearGradient
       id="linearGradient2867-449-88-871-390-598-476-591-434-148-57-177-0-454-5">
      <stop
         id="stop3298-6"
         style="stop-color:#c7c7c7;stop-opacity:1"
         offset="0" />
      <stop
         id="stop3300-7"
         style="stop-color:#a6a6a6;stop-opacity:1"
         offset="0.26238" />
      <stop
         id="stop3302-8"
         style="stop-color:#7b7b7b;stop-opacity:1"
         offset="0.704952" />
      <stop
         id="stop3304-1"
         style="stop-color:#595959;stop-opacity:1"
         offset="1" />
    </linearGradient>
    <linearGradient
       x1="7.864502"
       y1="15.5"
       x2="7.864502"
       y2="3"
       id="linearGradient3923"
       xlink:href="#linearGradient2867-449-88-871-390-598-476-591-434-148-57-177-0-454-5"
       gradientUnits="userSpaceOnUse" />
    <linearGradient
       x1="16"
       y1="0"
       x2="16"
       y2="16"
       id="linearGradient3846-6"
       xlink:href="#linearGradient3600-0"
       gradientUnits="userSpaceOnUse" />
    <linearGradient
       id="linearGradient3600-0">
      <stop
         id="stop3602-2"
         style="stop-color:#f4f4f4;stop-opacity:1"
         offset="0" />
      <stop
         id="stop3604-00"
         style="stop-color:#dbdbdb;stop-opacity:1"
         offset="1" />
    </linearGradient>
    <linearGradient
       x1="-15.846138"
       y1="2.9621537"
       x2="-15.846138"
       y2="38.230778"
       id="linearGradient4078"
       xlink:href="#linearGradient4090"
       gradientUnits="userSpaceOnUse"
       gradientTransform="matrix(0.35135122,0,0,0.35135132,17.56756,0.56756616)" />
    <linearGradient
       x1="8.2095251"
       y1="15.33796"
       x2="50.469131"
       y2="15.33796"
       id="linearGradient4243-4"
       xlink:href="#linearGradient2867-449-88-871-390-598-476-591-434-148-57-177-6-5"
       gradientUnits="userSpaceOnUse"
       gradientTransform="matrix(0,0.37861215,-0.35260946,0,14.40831,-4.1082261)" />
    <linearGradient
       id="linearGradient2867-449-88-871-390-598-476-591-434-148-57-177-6-5">
      <stop
         id="stop3750-1-6"
         style="stop-color:#90dbec;stop-opacity:1"
         offset="0" />
      <stop
         id="stop3752-0-2"
         style="stop-color:#55c1ec;stop-opacity:1"
         offset="0.26238" />
      <stop
         id="stop3754-0-8"
         style="stop-color:#3689e6;stop-opacity:1"
         offset="0.704952" />
      <stop
         id="stop3756-4-0"
         style="stop-color:#2b63a0;stop-opacity:1"
         offset="1" />
    </linearGradient>
    <linearGradient
       x1="39.738483"
       y1="87.967934"
       x2="23.98291"
       y2="87.967934"
       id="linearGradient4240-3"
       xlink:href="#linearGradient4297-6"
       gradientUnits="userSpaceOnUse"
       gradientTransform="matrix(0,-0.5372019,0.57681717,0,-43.497188,22.365627)" />
    <linearGradient
       id="linearGradient4297-6">
      <stop
         id="stop4299-0"
         style="stop-color:#ffffff;stop-opacity:1"
         offset="0" />
      <stop
         id="stop4301-3"
         style="stop-color:#ffffff;stop-opacity:0.23529412"
         offset="0.45000002" />
      <stop
         id="stop4303-7"
         style="stop-color:#ffffff;stop-opacity:0.15686275"
         offset="0.65000004" />
      <stop
         id="stop4305-7"
         style="stop-color:#ffffff;stop-opacity:0.39215687"
         offset="1" />
    </linearGradient>
    <linearGradient
       inkscape:collect="always"
       xlink:href="#linearGradient3600-0"
       id="linearGradient4288"
       gradientUnits="userSpaceOnUse"
       x1="16"
       y1="0"
       x2="16"
       y2="16" />
  </defs>
  <metadata
     id="metadata4235">
    <rdf:RDF>
      <cc:Work
         rdf:about="">
        <dc:format>image/svg+xml</dc:format>
        <dc:type
           rdf:resource="http://purl.org/dc/dcmitype/StillImage" />
        <dc:title />
      </cc:Work>
    </rdf:RDF>
  </metadata>
  <rect
     style="color:#000000;display:inline;overflow:visible;visibility:visible;fill:url(#linearGradient4288);fill-opacity:1;fill-rule:nonzero;stroke:none;stroke-width:0.99999988;marker:none;enable-background:accumulate"
     id="rect3937-2"
     y="11.999978"
     x="1"
     ry="0.5"
     rx="0.5"
     height="3.0000219"
     width="14" />
  <path
     inkscape:connector-curvature="0"
     style="color:#000000;display:inline;overflow:visible;visibility:visible;fill:url(#linearGradient3846-6);fill-opacity:1;fill-rule:nonzero;stroke:none;stroke-width:1px;marker:none;enable-background:accumulate"
     id="path3979"
     d="m 1,10 2,-8 10,0 2,8 0,3 -14,0 z" />
  <path
     inkscape:connector-curvature="0"
     style="color:#000000;display:inline;overflow:visible;visibility:visible;fill:url(#linearGradient3923);fill-opacity:1;fill-rule:nonzero;stroke:none;stroke-width:0.99999988;marker:none;enable-background:accumulate"
     id="path3852"
     d="M 3.765625,3 2,10 l 3,0 0,2 6,0 0,-2 3,0 -1.765625,-7 z" />
  <path
     inkscape:connector-curvature="0"
     style="opacity:0.2;fill:#000000;fill-opacity:1;stroke:none"
     id="path4003"
     d="M 3.7717373,3 2,10 2.3993002,10 4,5 12,5 13.6007,10 14,10 12.230469,3 Z" />
  <path
     inkscape:connector-curvature="0"
     style="color:#000000;display:inline;overflow:visible;visibility:visible;fill:#ffffff;fill-opacity:1;fill-rule:nonzero;stroke:none;stroke-width:0.99992192;marker:none;enable-background:accumulate"
     id="path3806"
     d="m 2,10.000022 0,1 3,0 L 5,13 l 6,2.2e-5 0,-2 3,0 0,-1 c 0,0 -1.28238,5e-5 -3,0 l 0,2 L 5,12 5,10.000022 c 0,0 -1.93063,0 -3,0 z" />
  <path
     inkscape:connector-curvature="0"
     style="color:#000000;display:inline;overflow:visible;visibility:visible;opacity:0.45;fill:none;stroke:#383838;stroke-width:1;stroke-linejoin:round;stroke-miterlimit:4;stroke-dasharray:none;stroke-opacity:1;marker:none;enable-background:accumulate"
     id="rect4014"
     d="m 0.5,10 0,4.5 c 0,0.554 0.446,1 1,1 l 13,0 c 0.554,0 1,-0.446 1,-1 l 0,-4.5 -2.101562,-8.5 -10.7961107,0 z" />
  <path
     inkscape:connector-curvature="0"
     style="color:#000000;display:inline;overflow:visible;visibility:visible;fill:none;stroke:url(#linearGradient4078);stroke-width:1;stroke-linecap:round;stroke-linejoin:round;stroke-miterlimit:4;stroke-dasharray:none;stroke-dashoffset:0;stroke-opacity:1;marker:none;enable-background:accumulate"
     id="path4076"
     d="m 3.375,2.5 -1.875,7.625 0,4.375 13,0 0,-4.375 -1.875,-7.625 -9.25,0 z" />
  <path
     inkscape:connector-curvature="0"
     style="color:#000000;display:block;overflow:visible;visibility:visible;fill:url(#linearGradient4243-4);fill-opacity:1;fill-rule:nonzero;stroke:none;stroke-width:0.96392483;marker:none;enable-background:accumulate"
     id="path5656"
     d="m 2.91874,4.50002 5,5.99998 5.16251,-5.99998 -2.58125,0 0,-4.00002 -5,0 0,4.00002 z" />
  <path
     inkscape:connector-curvature="0"
     style="color:#000000;display:block;overflow:visible;visibility:visible;opacity:0.5;fill:none;stroke:#004372;stroke-width:1;stroke-linecap:butt;stroke-linejoin:round;stroke-miterlimit:7;stroke-dasharray:none;stroke-dashoffset:0;stroke-opacity:1;marker:none;enable-background:accumulate"
     id="path3896"
     d="m 2.91874,4.50002 5,5.99998 5.16251,-5.99998 -2.58125,0 0,-4.00002 -5,0 0,4.00002 z" />
  <path
     inkscape:connector-curvature="0"
     style="color:#000000;display:block;overflow:visible;visibility:visible;opacity:0.40100002;fill:none;stroke:url(#linearGradient4240-3);stroke-width:0.96392483;stroke-linecap:butt;stroke-linejoin:miter;stroke-miterlimit:7;stroke-dasharray:none;stroke-dashoffset:0;stroke-opacity:1;marker:none;enable-background:accumulate"
     id="path3896-5"
     d="M 5.0248834,5.5 7.9436234,9 10.900467,5.5 9.5,5.5 l 0,-4 -3,0 0,4 z" />
</svg>

<svg xmlns="http://www.w3.org/2000/svg" xmlns:xlink="http://www.w3.org/1999/xlink" viewBox="0 0 16 16"><defs><linearGradient id="c"><stop offset="0" stop-color="#fff"/><stop offset=".028" stop-color="#fff" stop-opacity=".235"/><stop offset=".984" stop-color="#fff" stop-opacity=".157"/><stop offset="1" stop-color="#fff" stop-opacity=".392"/></linearGradient><linearGradient id="a"><stop offset="0" stop-color="#c7c7c7"/><stop offset=".262" stop-color="#a6a6a6"/><stop offset=".705" stop-color="#7b7b7b"/><stop offset="1" stop-color="#595959"/></linearGradient><linearGradient x1="7.865" y1="15.5" x2="7.865" y2="3" id="h" xlink:href="#a" gradientUnits="userSpaceOnUse"/><linearGradient x1="16" x2="16" y2="16" id="g" xlink:href="#b" gradientUnits="userSpaceOnUse"/><linearGradient id="b"><stop offset="0" stop-color="#f4f4f4"/><stop offset="1" stop-color="#dbdbdb"/></linearGradient><linearGradient x1="-15.846" y1="2.962" x2="-15.846" y2="38.231" id="i" xlink:href="#c" gradientUnits="userSpaceOnUse" gradientTransform="translate(17.568 .568) scale(.35135)"/><linearGradient x1="8.21" y1="15.338" x2="50.469" y2="15.338" id="j" xlink:href="#d" gradientUnits="userSpaceOnUse" gradientTransform="matrix(0 .3786 -.3526 0 14.408 -4.108)"/><linearGradient id="d"><stop offset="0" stop-color="#90dbec"/><stop offset=".262" stop-color="#55c1ec"/><stop offset=".705" stop-color="#3689e6"/><stop offset="1" stop-color="#2b63a0"/></linearGradient><linearGradient x1="39.738" y1="87.968" x2="23.983" y2="87.968" id="k" xlink:href="#e" gradientUnits="userSpaceOnUse" gradientTransform="matrix(0 -.5372 .57682 0 -43.497 22.366)"/><linearGradient id="e"><stop offset="0" stop-color="#fff"/><stop offset=".45" stop-color="#fff" stop-opacity=".235"/><stop offset=".65" stop-color="#fff" stop-opacity=".157"/><stop offset="1" stop-color="#fff" stop-opacity=".392"/></linearGradient><linearGradient xlink:href="#b" id="f" gradientUnits="userSpaceOnUse" x1="16" x2="16" y2="16"/></defs><rect y="12" x="1" ry=".5" rx=".5" height="3" width="14" color="#000" overflow="visible" fill="url(#f)"/><path d="M1 10l2-8h10l2 8v3H1z" color="#000" overflow="visible" fill="url(#g)"/><path d="M3.766 3L2 10h3v2h6v-2h3l-1.766-7z" color="#000" overflow="visible" fill="url(#h)"/><path d="M3.772 3L2 10h.4L4 5h8l1.6 5h.4l-1.77-7z" opacity=".2"/><path d="M2 10v1h3v2h6v-2h3v-1h-3v2H5v-2H2z" color="#000" overflow="visible" fill="#fff"/><path d="M.5 10v4.5c0 .554.446 1 1 1h13c.554 0 1-.446 1-1V10l-2.102-8.5H2.602z" color="#000" overflow="visible" opacity=".45" fill="none" stroke="#383838" stroke-linejoin="round"/><path d="M3.375 2.5L1.5 10.125V14.5h13v-4.375L12.625 2.5h-9.25z" color="#000" overflow="visible" fill="none" stroke="url(#i)" stroke-linecap="round" stroke-linejoin="round"/><path d="M2.92 4.5l5 6 5.16-6H10.5v-4h-5v4z" color="#000" display="block" overflow="visible" fill="url(#j)"/><path d="M2.92 4.5l5 6 5.16-6H10.5v-4h-5v4z" color="#000" display="block" overflow="visible" opacity=".5" fill="none" stroke="#004372" stroke-linejoin="round" stroke-miterlimit="7"/><path d="M5.025 5.5L7.945 9 10.9 5.5H9.5v-4h-3v4z" color="#000" display="block" overflow="visible" opacity=".401" fill="none" stroke="url(#k)" stroke-width=".964" stroke-miterlimit="7"/></svg>
